X: 2046
T: Zeytinyağlı Yiyemem
C: (Anonim)
O: Turkey
F: http://compmusic.upf.edu/node/140
N: segah--turku--nimsofyan--zeytinyagli_yiyemem--
N: makam= segah
N: form= turku
N: usul= nimsofyan = 2/4
M: 2/4
L: 1/16
K: C _1/4B _1/4e ^f 
Q: 1/4=60
%%MIDI tuningsystem comma53
d2g3/2g/ fedc  | B2e2 e/d/e/f/ed  | d2gg fedc  | 
w:  ARANAĞME  |   |   | 
B2c/B/c/d/ BB/A/B/c/d/e/  | d2g3/2g/ fedc  | \
w:   |  ARANAĞME  | 
B2e2 e/d/e/f/ed  | 
w:   | 
d2gg fedc  | B2c/B/c/d/ .B2g/f/^1/4e/g/  | \
w:   |   | 
f2ff f2f2  | 
w:  *  Zey tin yağ lı   | 
=efga {a}g=fed  | d2gg ^3/4fedc  | B2e2 e/d/e/^3/4f/ed  | 
w:  yi ye mem  a *  man    |  Bas ma  da  fis *  tan   |  gi ye mem   | 
d2gg ^3/4fedc  | B2c/B/c/d/ B2g/f/^1/4e/g/  | \
w:  Bas ma  da  fis *  tan   |  gi ye *  *  *  mem   SAZ  | 
f2ff f2f2  | 
w:  *  Se nin  gi bi   | 
=efga {a}g=fed  | d2g3/2g/ ^3/4fedc  | \
w:  ca *  hi *  *  le    |  Gel  e *  fen *  dim   | 
B2e2 e/d/e/^3/4f/ed  | 
w:  di ye mem   | 
d2g3/2g/ ^3/4fedc  | B2c/B/c/d/ B2z2  | \
w:  Gel  e *  fen *  dim   |  di ye *  *  *  mem    | 
d2gg fedc  | 
w:  Kal dım  *  du man  i çi   | 
B2e2 e/d/e/f/ed  | d2gg fedc  | B2c/B/c/d/ B2z2  | 
w:  dağ lar da    |  Sev gi li  yâ *  rim   |  ne re *  ler *  de    | 
d2gg fedc  | B2e2 e/d/e/f/ed  | d2gg fedc  | 
w:  Kal dım  *  du man  i çi   |  dağ lar da    |  Sev gi li  yâ *  rim   | 
B2c/B/c/d/ B2z2  | d2g3/2g/ fedc  | B2e2 e/d/e/f/ed  | 
w:  ne re *  ler *  de    |  ARANAĞME  |   | 
d2gg fedc  | B2c/B/c/d/ BB/A/B/c/d/e/  | \
w:   |   | 
d2g3/2g/ fedc  | 
w:  ARANAĞME  | 
B2e2 e/d/e/f/ed  | d2gg fedc  | B2c/B/c/d/ .B2g/f/^1/4e/g/  | 
w:   |   |   | 
f2ff f2f2  | =efga {a}g=fed  | d2gg ^3/4fedc  | \
w:  *  Zey tin yağ lı   |  yi ye mem  a *  man    |  Bas ma  da  fis *  tan   | 
B2e2 e/d/e/^3/4f/ed  | 
w:  gi ye mem   | 
d2gg ^3/4fedc  | B2c/B/c/d/ B2g/f/^1/4e/g/  | \
w:  Bas ma  da  fis *  tan   |  gi ye *  *  *  mem   SAZ  | 
f2ff f2f2  | 
w:  *  Se nin  gi bi   | 
=efga {a}g=fed  | d2g3/2g/ ^3/4fedc  | \
w:  ca *  hi *  *  le    |  Gel  e *  fen *  dim   | 
B2e2 e/d/e/^3/4f/ed  | 
w:  di ye mem   | 
d2g3/2g/ ^3/4fedc  | B2c/B/c/d/ B2z2  | \
w:  Gel  e *  fen *  dim   |  di ye *  *  *  mem    | 
d2gg fedc  | 
w:  Kal dım  *  du man  i çi   | 
B2e2 e/d/e/f/ed  | d2gg fedc  | B2c/B/c/d/ B2z2  | 
w:  dağ lar da    |  Sev gi li  yâ *  rim   |  ne re *  ler *  de    | 
d2gg fedc  | B2e2 e/d/e/f/ed  | d2gg fedc  | 
w:  Kal dım  *  du man  i çi   |  dağ lar da    |  Sev gi li  yâ *  rim   | 
B2c/B/c/d/ B2z2  | |


